X:1
T:BWV 1008M
T:J. S. Bach
%%score { ( 1 3 ) | ( 2 4 ) }
L:1/8
Q:1/4=132
M:3/4
K:E
V:1 bass nm="チェロ"
V:3 bass 
V:2 bass 
V:4 bass 
V:1
"^Allegro" C,E, G,2- G,/E,/D,/C,/ | ^B,,/D,/F,/G,/ A,2- A,/G,/F,/E,/ | %2
 D,/F,/A,/^B,/ D>A, G,/F,/E,/D,/ | E,/F,/G,/E,/ C,B,, A,,G,, | A,,/C,/E,/G,/ C>B, A,/G,/F,/E,/ | %5
 D,/F,/A,/C/ B,/G,/A,/F,/ E,/D,/F,/A,,/ | G,,/B,,/D,/F,/ B,>A, G,/F,/E,/D,/ | %7
 C,/E,/G,/B,/ A,/F,/G,/E,/ D,/E,/G,/E,/ | F,,/A,,/C,/E,/ A,>G, F,/E,/D,/F,/ | %9
 G,,/B,,/D,/F,/ B,/G,/D,/F,/ E,/G,/C,/=D,/ | C,/G,,/A,,/C,/ F,/A,/G,/B,/ A,/F,/C/E,/ | %11
 D,/^A,,/B,,/D,/ F,/C,/D,/B,,/ =A,,/F,,/D,/A,,/ | E,,G,, B,,2- B,,/A,,/G,,/F,,/ | %13
 ^E,,/G,,/A,,/B,,/ C,,/B,,/A,,/G,,/ ^E,/=D,/C,/B,,/ | A,,/G,,/F,,/A,,/ C,2- C,/B,,/A,,/G,,/ | %15
 =G,,/^A,,/B,,/C,/ D,,/C,/B,,/A,,/ =G,/E,/D,/C,/ | B,,/^A,,/G,,/B,,/ E,/D,/E,/=G,/ ^G,/E,/C,/B,,/ | %17
 ^A,,/C,/=G,/^A,/ C>B, A,/^G,/=G,/^G,/ | B,,/D,/G,/B,/ D>B, ^A,/G,/=G,/^G,/ | %19
 C,/E,/G,/C/ E>D C/B,/^A,/C/ | D,/C/B,/^A,/ G,/B,/A,/G,/ C,/A,/G,/=G,/ | %21
 B,,/G,/F,/E,/ ^B,,/F,/E,/D,/ C,/E,/D,/C,/ | =G,,/C,/D,/E,/ ^A,/E,/D,/C,/ G,,/C,/B,,/^A,,/ | %23
 G,,/^A,,/B,,/D,/ G,/^A,/B,/G,/ D,/B,,/G,,/F,,/ | ^E,,/G,,/B,,/C,/ =D,>C, B,,/A,,/B,,/G,/ | %25
 A,,/G,,/A,,/C,/ F,,/=D,/E,/F,/ G,,/F,/E,/D,/ | C,/B,,/C,/E,/ A,,/F,/G,/A,/ ^B,,/A,/G,/F,/ | %27
 E,/D,/E,/G,/ C,/A,/B,/C/ D,/C/B,/A,/ | G,/F,/G,/B,/ E,/C/D/E/ F,/E/D/C/ | %29
 ^B,/F,/E,/D,/ G,,/D,/E,/F,/ B,/A,/G,/F,/ | E,/F,/G,/^B,/ C/G,/F,/E,/ G,/E,/D,/C,/ | %31
 =G,/C,/D,/E,/ G,,/E,/D,/C,/ G,/E,/D,/C,/ | ^B,,/^A,,/B,,/D,/ G,/D,/B,,/D,/ G,,/F,/E,/D,/ | %33
 E,/D,/E,/G,/ C/G,/E,/G,/ C,/B,/A,/G,/ | F,/E,/F,/^B,/ D/B,/F,/B,/ G,,/F,/E,/D,/ | %35
 C,/G,/C/D/ E/C/G,/E,/ C,/B,/A,/G,/ | F,/G,/A,/C,/ =D,/E,/F,/G,/ A,/F,/=D/F,/ | %37
 E,/F,/G,/^B,,/ C,/D,/E,/F,/ G,/E,/C/E,/ | D,/E,/F,/A,,/ G,,/^A,,/^B,,/C,/ D,/=A,,/F,/A,,/ | %39
 ^B,,,G,, F,2- F,/A,/G,/F,/ | E,/D,/C,/D,/ E,/C,/G,/E,/ C/G,/E,/C,/ | =G,,E, C2- C/E/D/C/ | %42
 ^B,/^A,/G,/A,/ B,/G,/C/G,/ D/G,/E/G,/ | F/D/^B,/D/ G,/B,/D/E/ F/E/F/D/ | %44
 E/C/^B,/C/ G,/B,/C/D/ E/D/E/C/ | D/^B,/^A,/B,/ G,/A,/B,/C/ D/C/D/B,/ | %46
 C/^A,/G,/A,/ E,/=G,/A,/^B,/ C/B,/C/A,/ | !fermata!^B,2 z4 | %48
 A,/F,/^E,/F,/ =D,/F,/C,/F,/ D,/F,/A,/C,/ | ^B,,/D,/F,/G,/ A,>G, F,/^E,/F,/D/ | %50
 E,/C/A,/F,/ G,/E,/D,/F,/ E,/C,/^B,,/D,/ | C,/A,,/G,,/F,,/ ^E,,/G,,/B,,/=D,/ C,/B,,/A,,/G,,/ | %52
 A,,/F,,/^E,,/F,,/ =D,,/F,,/C,,/F,,/ D,,/F,,/A,,/C,,/ | F,>E, D,/C,/^B,,/^A,,/ G,,/F,,/E,,/D,,/ | %54
 C,,/G,,/C,/D,/ E,/D,/C,/B,,/ A,,/G,,/F,,/E,,/ | D,,/G,,/^B,,/D,/ F,/E,/D,/C,/ B,,/^A,,/G,,/F,,/ | %56
 E,,/G,,/C,/E,/ G,/C,/E,/G,/ C/A,/B,/G,/ | F,,/C,/F,/G,/ A,/F,/^E,/F,/ =D/F,/C/F,/ | %58
 G,,/F,/^B,/F,/ B,/F,/G,,/F,/ G,,/F,/B,/F,/ | G,,/E,/C/E,/ C/E,/G,,/E,/ G,,/E,/C/E,/ | %60
 G,,/D,/C/D,/ C/D,/G,,/D,/ G,,/D,/C/D,/ | G,,/D,/^B,/D,/ B,/D,/G,,/D,/ G,,/D,/B,/D,/ | %62
 !fermata!C6 |[M:4/4][Q:1/4=112]"^Moderato" z4 z2 z z/ G,/ | %64
 G,A,/G,/ F,/E,/D,/C,/ C,/^B,,/C,/D,/ G,,A,,/F,,/ | E,,/G,,/C,/E,,/ D,,^B,, C,>D, E,/F,/G,/A,/ | %66
 B,C/=D/ C/B,/A,/G,/ B,/A,/G,/F,/ C>=E, | D,/F,/A,/C/ B,/A,/G,/F,/ A,/G,/F,/E,/ G,>G, | %68
 ^A,/E,/D,/C,/ D,/^B,/C/B,/ C>D E/D/C/D/ | C/B,/^A,/B,/ A,/G,/=G,/^G,/ =G,^E,/D,/ D/B,/^G,/F,/ | %70
 E,/G,/E,/C,/ ^A,,/E,/C,/A,,/ =G,,/A,,/D,/=G,/ ^A,/C/B,/A,/ | %71
 B,/G,/E,/D,/ C,/E,/D,/C,/ G,/4=G,/4^G,/4=G,/4^G,/4=G,/4^G,/ ^A,/C/D,/C,/ | %72
 B,,/D,/G,/C/ B,/4^A,/4B,/4A,/4B,/4A,/4G,/ G, z z2 | %73
 C,/=G,/^G,/^A,/ G,/=G,/^E,/D,/ D,=E,/D,/ C,/B,,/^A,,/G,,/ | %74
 C,D,/E,/ D,/C,/B,,/^A,,/ C/^A,/B,/G,/ D,=G, | G,,>^B,, D,/F,/E,/D,/ E,/G,/C/=G,/ ^G,3/2 G,/ | %76
 G,A,/G,/ F,/E,/D,/C,/ C,/^B,,/C,/D,/ G,,A,,/F,,/ | E,,/G,,/C,/E,,/ D,,^B,, C,>D, E,/F,/G,/A,/ | %78
 B,C/=D/ C/B,/A,/G,/ B,/A,/G,/F,/ C>=E, | D,/F,/A,/C/ B,/A,/G,/F,/ A,/G,/F,/E,/ G,>G, | %80
 ^A,/E,/D,/C,/ D,/^B,/C/B,/ C>D E/D/C/D/ | C/B,/^A,/B,/ A,/G,/=G,/^G,/ =G,^E,/D,/ D/B,/^G,/F,/ | %82
 E,/G,/E,/C,/ ^A,,/E,/C,/A,,/ =G,,/A,,/D,/=G,/ ^A,/C/B,/A,/ | %83
 B,/G,/E,/D,/ C,/E,/D,/C,/ G,/4=G,/4^G,/4=G,/4^G,/4=G,/4^G,/ ^A,/C/D,/C,/ | %84
 B,,/D,/G,/C/ B,/4^A,/4B,/4A,/4B,/4A,/4G,/ G, z z2 | %85
 C,/=G,/^G,/^A,/ G,/=G,/^E,/D,/ D,=E,/D,/ C,/B,,/^A,,/G,,/ | %86
 C,D,/E,/ D,/C,/B,,/^A,,/ C/^A,/B,/G,/ D,=G, | G,,>^B,, D,/F,/E,/D,/ E,/G,/C/=G,/ ^G,3/2 D,/ | %88
 D,>E, F,/D,/E,/G,/ ^B,,/C,/D,/A,,/ A,,/4G,,/4A,,/4G,,/4A,,/4G,,/4F,,/ | %89
 E,,/G,/E,/C,/ F,/^A,,/^B,,/G,/ F,/E,/D,/C,/ ^E,/C,/=D,/=B,,/ | %90
 A,,/F,/G,,/F,,/ ^E,,/G,,/C,/B,/ A,/^E,/F,/A,/ C/G,/A,/F,/ | %91
 =D,/C,/D,/F,/ B,/G,/A,/F,/ C,/B,,/C,/F,/ A,/^E,/F,/D,/ | %92
 B,,/A,,/B,,/A,/ G,/B,/=D/F,/ F,/4^E,/4F,/4E,/4F,/G,/ C,=D,/B,,/ | %93
 A,,/C,/F,/A,,/ C,,^E, F,>G, A,/C/F,/E,/ | D,>E, F,/D,/B,,/A,,/ G,,/E,/F,,/E,,/ D,,/F,/G,/A,/ | %95
 A,/G,/F,/E,/ G,/D,/E,/C,/ A,,/C,/E,/G,/ C/G,/A,/F,/ | %96
 G,,/F,/^B,/C/ D/F,/G,/D,/ E,/C,/A,,/C,/ =G,,/E,/D,/C,/ | %97
 C,/^B,,/^A,,/G,,/ =B,,/G,,/^E,,/C,/ B,,/G,,/=A,,/C,/ E,/C,/=G,,/C,/ | %98
 ^B,,/D,/F,/A,/ D/G,/A,/F,/ E,/B,,/C,/=G,,/ ^G,,B,, | %99
 C,,/C/B,/G,/ A,/F,/D,/^B,/ C/G,/E,/C,/ C,,3/2 D,/ | %100
 D,>E, F,/D,/E,/G,/ ^B,,/C,/D,/A,,/ A,,/4G,,/4A,,/4G,,/4A,,/4G,,/4F,,/ | %101
 E,,/G,/E,/C,/ F,/^A,,/^B,,/G,/ F,/E,/D,/C,/ ^E,/C,/=D,/=B,,/ | %102
 A,,/F,/G,,/F,,/ ^E,,/G,,/C,/B,/ A,/^E,/F,/A,/ C/G,/A,/F,/ | %103
 =D,/C,/D,/F,/ B,/G,/A,/F,/ C,/B,,/C,/F,/ A,/^E,/F,/D,/ | %104
 B,,/A,,/B,,/A,/ G,/B,/=D/F,/ F,/4^E,/4F,/4E,/4F,/G,/ C,=D,/B,,/ | %105
 A,,/C,/F,/A,,/ C,,^E, F,>G, A,/C/F,/E,/ | D,>E, F,/D,/B,,/A,,/ G,,/E,/F,,/E,,/ D,,/F,/G,/A,/ | %107
 A,/G,/F,/E,/ G,/D,/E,/C,/ A,,/C,/E,/G,/ C/G,/A,/F,/ | %108
 G,,/F,/^B,/C/ D/F,/G,/D,/ E,/C,/A,,/C,/ =G,,/E,/D,/C,/ | %109
 C,/^B,,/^A,,/G,,/ =B,,/G,,/^E,,/C,/ B,,/G,,/=A,,/C,/ E,/C,/=G,,/C,/ | %110
 ^B,,/D,/F,/A,/ D/G,/A,/F,/ E,/B,,/C,/=G,,/ ^G,,B,, | %111
 C,,/C/B,/G,/ A,/F,/D,/^B,/ C/G,/E,/C,/ !fermata!C,,3/2 z/ |[M:3/4] z4 z z/ C/ | %113
 C/G,/E,/G,/ C,/E,/F,/G,/ A,/G,/A,/F,/ | G,2 z4 x2 | E,/C,/D,/B,,/ A,,/G,,/A,,/G,/ F,/E,/D,/C,/ | %116
 ^B,,/D,/G,,/^A,,/ B,,/C,/D,/E,/ F,/A,/G,/D,/ | E,/G,/C,/D,/ E,/F,/G,/A,/ B,/A,/C/B,/ | %118
 B,2- B,/A,/G,/F,/ E,/=D,/C,/D,/ x2 | C,/A,,/G,,/A,,/ C,/A,,/D,/A,,/ E,/A,,/F,/A,,/ | %120
 D,,/F,,/B,,/C,/ D,/E,/F,/G,/ A,/G,/A,/F,/ | G,/E,/D,/E,/ G,/E,/A,/E,/ B,/E,/C/E,/ | %122
 ^B,,/D,/G,/^A,/ ^B,/C/D/E/ F/E/F/D/ | C,/G,/E/D/ C/B,/C/B,/ ^A,/G,/A,/G,/ | %124
 =G,/^G,/^A,/D,/ E,/D,/E,/C,/ D,/B,,/C,/^A,,/ | B,,,/G,,/^A,,/B,/ ^A,/G,/=G,/^G,/ C,/G,/D,/G,/ | %126
 E,/G,/^A,/B,/ A,/G,/=G,/^G,/ E,/G,/D,/G,/ | =D,/G,/^A,/B,/ A,/G,/=G,/^G,/ ^D,/G,/D,/=G,/ | %128
 G,/D,/^B,,/D,/ G,,/B,,/D,/=G,/ ^G,3/2 C/ | C/G,/E,/G,/ C,/E,/F,/G,/ A,/G,/A,/F,/ | G,2 z4 x2 | %131
 E,/C,/D,/B,,/ A,,/G,,/A,,/G,/ F,/E,/D,/C,/ | ^B,,/D,/G,,/^A,,/ B,,/C,/D,/E,/ F,/A,/G,/D,/ | %133
 E,/G,/C,/D,/ E,/F,/G,/A,/ B,/A,/C/B,/ | B,2- B,/A,/G,/F,/ E,/=D,/C,/D,/ x2 | %135
 C,/A,,/G,,/A,,/ C,/A,,/D,/A,,/ E,/A,,/F,/A,,/ | D,,/F,,/B,,/C,/ D,/E,/F,/G,/ A,/G,/A,/F,/ | %137
 G,/E,/D,/E,/ G,/E,/A,/E,/ B,/E,/C/E,/ | ^B,,/D,/G,/^A,/ ^B,/C/D/E/ F/E/F/D/ | %139
 C,/G,/E/D/ C/B,/C/B,/ ^A,/G,/A,/G,/ | =G,/^G,/^A,/D,/ E,/D,/E,/C,/ D,/B,,/C,/^A,,/ | %141
 B,,,/G,,/^A,,/B,/ ^A,/G,/=G,/^G,/ C,/G,/D,/G,/ | E,/G,/^A,/B,/ A,/G,/=G,/^G,/ E,/G,/D,/G,/ | %143
 =D,/G,/^A,/B,/ A,/G,/=G,/^G,/ ^D,/G,/D,/=G,/ | G,/D,/^B,,/D,/ G,,/B,,/D,/=G,/ ^G,3/2 D/ | %145
 D/^B,/G,/B,/ D,/E,/F,/G,/ A,/F,/B,/F,/ | C2- C/G,/C/D/ E/C/G,/B,/ | %147
 ^A,/E,/C,/E,/ F,,/C,/E,/F,/ A,/E,/C/E,/ | D,/F,/B,,/C,/ D,/E,/F,/G,/ A,/C/B,/F,/ | %149
 [E,G,]/B,/A,/G,/ F,/E,/=D,/C,/ D,/B,/E,/D,/ | C,2- C,/D,/E,/F,/ G,/A,/B,/C/ | %151
 D,/A,,/G,,/F,,/ G,,/E,/F,,/E,,/ B,,,/F,,/E,/D,/ | E,/G,/A,/G,/ F,/E,/D,/E,/ F,/D,/E,/C,/ | %153
 ^B,,/F,/^A,,/F,/ G,,/F,/A,,/F,/ B,,/F,/G,,/F,/ | E,/C,/E,/G,/ C/G,/C/D/ E/G,/E,/C,/ | %155
 F,,/C,/F,/G,/ A,/F/G,/E/ F,/D/E,/C/ | ^B,/C/D/B,/ G,/B,/A,/B,/ G,/B,/F,/B,/ | %157
 E,/C/D/E/ D/C/^B,/C/ F,/C/G,/C/ | A,/C/D/E/ D/C/^B,/C/ A,/C/G,/C/ | %159
 =G,/C/D/E/ D/C/^B,/C/ ^G,/C/G,/B,/ | C/G,/E,/G,/ C,/E,/G,,/C,/ C,,3/2 D/ | %161
 D/^B,/G,/B,/ D,/E,/F,/G,/ A,/F,/B,/F,/ | C2- C/G,/C/D/ E/C/G,/B,/ | %163
 ^A,/E,/C,/E,/ F,,/C,/E,/F,/ A,/E,/C/E,/ | D,/F,/B,,/C,/ D,/E,/F,/G,/ A,/C/B,/F,/ | %165
 E,/B,/A,/G,/ F,/E,/=D,/C,/ D,/B,/E,/D,/ | C,2- C,/D,/E,/F,/ G,/A,/B,/C/ | %167
 D,/A,,/G,,/F,,/ G,,/E,/F,,/E,,/ B,,,/F,,/E,/D,/ | E,/G,/A,/G,/ F,/E,/D,/E,/ F,/D,/E,/C,/ | %169
 ^B,,/F,/^A,,/F,/ G,,/F,/A,,/F,/ B,,/F,/G,,/F,/ | E,/C,/E,/G,/ C/G,/C/D/ E/G,/E,/C,/ | %171
 F,,/C,/F,/G,/ A,/F/G,/E/ F,/D/E,/C/ | ^B,/C/D/B,/ G,/B,/A,/B,/ G,/B,/F,/B,/ | %173
 E,/C/D/E/ D/C/^B,/C/ F,/C/G,/C/ | A,/C/D/E/ D/C/^B,/C/ A,/C/G,/C/ | %175
 =G,/C/D/E/ D/C/^B,/C/ ^G,/C/G,/B,/ | C/G,/E,/G,/ C,/E,/G,,/C,/ !fermata!C,,3/2 z/ | z6 | %178
[M:3/4] C,>D, E,/4D,/4E,/4D,/4E,/4D,/4E,/4D,/4 E,/4D,/4E,/4D,/4C,/D,/ | E,3 D, C,B,, | %180
 A,,F, E,D,/E,/ F,/G,/A,/C,/ | %181
 C,/4^B,,/4C,/4B,,/4C,/4B,,/4C,/4B,,/4 C,/4B,,/4C,/4B,,/4^A,, G,,F,, | %182
 C,>D, E,/4D,/4E,/4D,/4E,/4D,/4E,/4D,/4 E,/4D,/4E,/4D,/4C,/D,/ | E,3 D, C,B,, | %184
 F,A,/G,/ B,/A,/G,/F,/ CE, | E,/4D,/4E,/4D,/4E,/4D,/4E,/4D,/4 E,/4D,/4E,/4D,/4C, B,,A,, | %186
 E,F,/G,/ G,3 F,/E,/ | F,G,/A,/ A,3 B,/C/ | D,E, B,,,F,, E,D, | E,2 E,,4 | %190
 C,>D, E,/4D,/4E,/4D,/4E,/4D,/4E,/4D,/4 E,/4D,/4E,/4D,/4C,/D,/ | E,3 D, C,B,, | %192
 A,,F, E,D,/E,/ F,/G,/A,/C,/ | %193
 C,/4^B,,/4C,/4B,,/4C,/4B,,/4C,/4B,,/4 C,/4B,,/4C,/4B,,/4^A,, G,,F,, | %194
 C,>D, E,/4D,/4E,/4D,/4E,/4D,/4E,/4D,/4 E,/4D,/4E,/4D,/4C,/D,/ | E,3 D, C,B,, | %196
 F,A,/G,/ B,/A,/G,/F,/ CE, | E,/4D,/4E,/4D,/4E,/4D,/4E,/4D,/4 E,/4D,/4E,/4D,/4C, B,,A,, | %198
 E,F,/G,/ G,3 F,/E,/ | F,G,/A,/ A,3 B,/C/ | D,E, B,,,F,, E,D, | E,2 E,,4 | %202
 G,2 A,/4G,/4A,/4G,/4A,/4G,/4A,/4G,/4 A,/4G,/4A,/4G,/4A, | %203
 B,A,/G,/ F,/4^E,/4F,/4E,/4F,/4E,/4=D,/ C,B,, | A,,F, G,,^E, =DC | %205
 B,/4A,/4B,/4A,/4B,/4A,/4B,/4A,/4 B,/4A,/4B,/4A,/4G, F,E, | D,A,, G,,E, F,G, | C,=G,, F,,=D, E,F, | %208
 ^B,,A, G,F,/E,/ D,E,/C,/ | ^B,,D,/G,/ G,,>F, E,D, | C,D,/E,/ E,3 D,/C,/ | D,E,/F,/ F,3 G,/A,/ | %212
 G,^B,/C/ C,D,/E,/4F,/4 F,/4E,/4F,/4E,/4D,/C,/ | C,2 C,,/G,,/^A,,/^B,,/ C,/D,/E,/F,/ | %214
 G,/^A,/B,/A,/ B,3 A,/G,/ | ^A,/^B,/C/B,/ C3 D/E/ | C/^B,/C/E,/ G,,D, CB, | C2 C,,4 | %218
 G,2 A,/4G,/4A,/4G,/4A,/4G,/4A,/4G,/4 A,/4G,/4A,/4G,/4A, | %219
 B,A,/G,/ F,/4^E,/4F,/4E,/4F,/4E,/4=D,/ C,B,, | A,,F, G,,^E, =DC | %221
 B,/4A,/4B,/4A,/4B,/4A,/4B,/4A,/4 B,/4A,/4B,/4A,/4G, F,E, | D,A,, G,,E, F,G, | C,=G,, F,,=D, E,F, | %224
 ^B,,A, G,F,/E,/ D,E,/C,/ | ^B,,D,/G,/ G,,>F, E,D, | C,D,/E,/ E,3 D,/C,/ | D,E,/F,/ F,3 G,/A,/ | %228
 G,^B,/C/ C,D,/E,/4F,/4 F,/4E,/4F,/4E,/4D,/C,/ | C,2 C,,/G,,/^A,,/^B,,/ C,/D,/E,/F,/ | %230
 G,/^A,/B,/A,/ B,3 A,/G,/ | ^A,/^B,/C/B,/ C3 D/E/ | C/^B,/C/E,/ G,,D, CB, | C2 !fermata!C,,4 | %234
[M:3/4][Q:1/4=132]"^Allegro" G,4 A,2 x2 | A,G, A,F, G,2 x2 | C,2 F,2 E,D, | E,D, C,^B,, ^A,,G,, | %238
 G,4 A,2 x2 | A,G, A,F, B,2 | G,2 C2 D2 x2 | ^B,6 x2 | G,4 A,2 x2 | A,G, A,F, G,2 x2 | %244
 C,2 F,2 E,D, | E,D, C,^B,, ^A,,G,, | G,4 A,2 x2 | A,G, A,F, B,2 | G,2 C2 D2 x2 | ^B,6 x2 | %250
 D4 CD/E/ | DC ^B,D G,F, | G,2 C2 ^B,2 | FE DE CB, | A,4 B,2 | G,F, G,E, C2 x2 | %256
 B,B, A,G, F,G, x2 | E,D, E,G, F,A, | %258
 A,/4G,/4A,/4G,/4A,/4G,/4A,/4G,/4 A,/4G,/4A,/4G,/4A,/4G,/4A,/4G,/4 A,2 | %259
 B,A, B,G, F,/4^E,/4F,/4E,/4F,/4E,/4F,/4E,/4 | CC B,B, A,G, x2 | B,A, G,A, F,A, x2 | C2 ^B,2 C2 | %263
 F,E, F,D, E,2 | F,,F, E,/4D,/4E,/4D,/4E,/4D,/4E,/4D,/4 E,/4D,/4E,/4D,/4C, | C,6 x2 | D4 CD/E/ | %267
 DC ^B,D G,F, | G,2 C2 ^B,2 | FE DE CB, | A,4 B,2 | G,F, G,E, C2 x2 | B,B, A,G, F,G, x2 | %273
 E,D, E,G, F,A, | A,/4G,/4A,/4G,/4A,/4G,/4A,/4G,/4 A,/4G,/4A,/4G,/4A,/4G,/4A,/4G,/4 A,2 | %275
 B,A, B,G, F,/4^E,/4F,/4E,/4F,/4E,/4F,/4E,/4 | CC B,B, A,G, x2 | B,A, G,A, F,A, x2 | C2 ^B,2 C2 | %279
 F,E, F,D, E,2 | F,,F, E,/4D,/4E,/4D,/4E,/4D,/4E,/4D,/4 E,/4D,/4E,/4D,/4C, | %281
[K:Db] G,/4F,/4G,/4F,/4G,/4F,/4G,/4F,/4 D,E, F,G, | A,2 F,,2 A,2 | G,,B,, E,2 G,2 | %284
 D,C, B,,C, A,,G,, | F,,D CB, A,G, | B,A, G,F, E,D, | C,D, G,2 F,A, | E,6 | %289
 G,/4F,/4G,/4F,/4G,/4F,/4G,/4F,/4 D,E, F,G, | A,2 F,,2 A,2 | G,,B,, E,2 G,2 | D,C, B,,C, A,,G,, | %293
 F,,D CB, A,G, | B,A, G,F, E,D, | C,D, G,2 F,A, | E,6 | C2 ED CB, | C2 G,,2 C2 | F,A, D2 F2 | %300
 B,A, G,F, G,B, | E,D CB, C=A, | D,B, A,G, F,E, | G,F, E,D, C,D, | B,,C, D,E, F,G, | %305
 A,G, F,G, A,B, | _C2 =D,,2 C2 | B,A, _CB, A,G, | F,G, A,F, G,E, | %309
 D,/4C,/4D,/4C,/4D,/4C,/4D,/4C,/4 A,,B,, C,D, | E,F, G,B, A,2 | G,F, E,D, E,C, | D,6 | C2 ED CB, | %314
 C2 G,,2 C2 | F,A, D2 F2 | B,A, G,F, G,B, | E,D CB, C=A, | D,B, A,G, F,E, | G,F, E,D, C,D, | %320
 B,,C, D,E, F,G, | A,G, F,G, A,B, | _C2 =D,,2 C2 | B,A, _CB, A,G, | F,G, A,F, G,E, | %325
 D,/4C,/4D,/4C,/4D,/4C,/4D,/4C,/4 A,,B,, C,D, | E,F, G,B, A,2 | G,F, E,D, E,C, | D,6 | %329
[K:E] G,4 A,2 x2 | A,G, A,F, G,2 x2 | C,2 F,2 E,D, | E,D, C,^B,, ^A,,G,, | G,4 A,2 x2 | %334
 A,G, A,F, B,2 | G,2 C2 D2 x2 | ^B,6 x2 | D4 CD/E/ | DC ^B,D G,F, | G,2 C2 ^B,2 | FE DE CB, | %341
 A,4 B,2 | G,F, G,E, C2 x2 | B,B, A,G, F,G, x2 | E,D, E,G, F,A, | %345
 A,/4G,/4A,/4G,/4A,/4G,/4A,/4G,/4 A,/4G,/4A,/4G,/4A,/4G,/4A,/4G,/4 A,2 | %346
 B,A, B,G, F,/4^E,/4F,/4E,/4F,/4E,/4F,/4E,/4 | CC B,B, A,G, x2 | B,A, G,A, F,A, x2 | C2 ^B,2 C2 | %350
 F,E, F,D, E,2 | F,,F, E,/4D,/4E,/4D,/4E,/4D,/4E,/4D,/4 E,/4D,/4E,/4D,/4C, | !fermata!C,6 x2 | %353
[M:3/8] z2 G, | C,2 A, | ^B,,2 F, | E,/D,/E,/F,/G, | C,2 C | D,/E,/F,A, | B,,/C,/D,B, | %360
 G,/F,/G,/A,/B,/G,/ | F,/4E,/4F,/4E,/4F,/4E,/4F,/4E,/4G, | ^A,,F,^B,, | C,E,/B,,/A,,/G,,/ | %364
 F,,=D,G,, | A,,C,/G,,/F,,/E,,/ | D,,^B,,A, | G,F,/E,/D,/C,/ | D,/E,/F,/D,/E,/C,/ | D,G,,B, | %370
 B,/C/=D/B,/C/G,/ | A,2 A, | A,/B,/C/A,/B,/F,/ | G, z G, | ^A,/B,/C/A,/B,/G,/ | C/D/E/C/D/B,/ | %376
 ^A,/B,/C/A,/B,/G,/ | D2 ^^F, | G,/^A,/B,/G,/C/A,/ x2 | G,/^A,/B,/G,/C/A,/ | G,/^A,/B,/G,/C/A,/ | %381
 G,/^A,/B,/G,/C/A,/ | ED/C/B,/^A,/ | B,,,/D/C/B,/^A,/^^F,/ | G,/E,/D,/C,/D,/^B,,/ | G,,2 G, | %386
 C,2 A, | ^B,,2 F, | E,/D,/E,/F,/G, | C,2 C | D,/E,/F,A, | B,,/C,/D,B, | G,/F,/G,/A,/B,/G,/ | %393
 F,/4E,/4F,/4E,/4F,/4E,/4F,/4E,/4G, | ^A,,F,^B,, | C,E,/B,,/A,,/G,,/ | F,,=D,G,, | %397
 A,,C,/G,,/F,,/E,,/ | D,,^B,,A, | G,F,/E,/D,/C,/ | D,/E,/F,/D,/E,/C,/ | D,G,,B, | %402
 B,/C/=D/B,/C/G,/ | A,2 A, | A,/B,/C/A,/B,/F,/ | G, z G, | ^A,/B,/C/A,/B,/G,/ | C/D/E/C/D/B,/ | %408
 ^A,/B,/C/A,/B,/G,/ | D2 ^^F, | G,/^A,/B,/G,/C/A,/ x2 | G,/^A,/B,/G,/C/A,/ | G,/^A,/B,/G,/C/A,/ | %413
 G,/^A,/B,/G,/C/A,/ | ED/C/B,/^A,/ | B,,,/D/C/B,/^A,/^^F,/ | G,/E,/D,/C,/D,/^B,,/ | G,,2 B, | %418
 E,2 C | D,2 A, | G,/F,/G,/A,/B, | E,2 G, | C,/D,/E,/C,/B,,/^A,,/ | F,/G,/F,/E,/D,/C,/ | %424
 D,/C,/D,/E,/F,/D,/ | B,,2 D, | ^E,/F,/G,/B,,/A,,/G,,/ | A,,/C,/F,/A,,/G,,/F,,/ | %428
 ^E,,/G,,/B,,/=D,/C,/B,,/ | A,,/G,,/A,,/C,/F,/A,/ | =G,/F,/G,/^E,/F,/=D/ | C,F,^E, | %432
 F,/=D,/C,/B,,/C,/A,,/ | F,,2 A, | A,2 z | B,,/C,/D,/B,,/C,/A,,/ | G,,/A,,/B,,/G,,/A,,/F,,/ | %437
 E,,2 G, | G,2 z | A,,/B,,/C,/A,,/B,,/G,,/ | F,,/G,,/A,,/F,,/G,,/E,,/ | D,,2 F, | %442
 G,,/^A,,/^B,,/C,/D,/F,/ | E,/F,/G,/^B,/C/E,/ | D,/E,/F,/G,/A,/C,/ | ^B,,/C,/D,/G,,/A,,/F,,/ | %446
 C,/D,/E,/C,/F,/D,/ x2 | C,/D,/E,/C,/F,/D,/ | C,/D,/E,/C,/F,/D,/ | C,/D,/E,/C,/F,/D,/ | %450
 ^B,,/A,/G,/F,/E,/D,/ | E,,/G,/F,/E,/D,/^B,,/ | C,/A,,/G,,/F,,/G,,/E,,/ | C,,/G,,/C,/D,/E,/C,/ | %454
 =D,/E,/F,/D,/E,/C,/ | F,/G,/A,/F,/G,/E,/ | =D,/E,/F,/D,/E,/C,/ | ^B,2 C/=B,/ x2 | %458
 A,/G,/F,/E,/D,/C,/ | ^B,,/^A,,/G,,/F,,/E,,/D,,/ | C,,/E,,/G,,/C,/E,/G,/ | C2 B, | E,2 C | D,2 A, | %464
 G,/F,/G,/A,/B, | E,2 G, | C,/D,/E,/C,/B,,/^A,,/ | F,/G,/F,/E,/D,/C,/ | D,/C,/D,/E,/F,/D,/ | %469
 B,,2 D, | ^E,/F,/G,/B,,/A,,/G,,/ | A,,/C,/F,/A,,/G,,/F,,/ | ^E,,/G,,/B,,/=D,/C,/B,,/ | %473
 A,,/G,,/A,,/C,/F,/A,/ | =G,/F,/G,/^E,/F,/=D/ | C,F,^E, | F,/=D,/C,/B,,/C,/A,,/ | F,,2 A, | A,2 z | %479
 B,,/C,/D,/B,,/C,/A,,/ | G,,/A,,/B,,/G,,/A,,/F,,/ | E,,2 G, | G,2 z | A,,/B,,/C,/A,,/B,,/G,,/ | %484
 F,,/G,,/A,,/F,,/G,,/E,,/ | D,,2 F, | G,,/^A,,/^B,,/C,/D,/F,/ | E,/F,/G,/^B,/C/E,/ | %488
 D,/E,/F,/G,/A,/C,/ | ^B,,/C,/D,/G,,/A,,/F,,/ | C,/D,/E,/C,/F,/D,/ x2 | C,/D,/E,/C,/F,/D,/ | %492
 C,/D,/E,/C,/F,/D,/ | C,/D,/E,/C,/F,/D,/ | ^B,,/A,/G,/F,/E,/D,/ | E,,/G,/F,/E,/D,/^B,,/ | %496
 C,/A,,/G,,/F,,/G,,/E,,/ | C,,/G,,/C,/D,/E,/C,/ | =D,/E,/F,/D,/E,/C,/ | F,/G,/A,/F,/G,/E,/ | %500
 =D,/E,/F,/D,/E,/C,/ | ^B,2 C/=B,/ x2 | A,/G,/F,/E,/D,/C,/ | ^B,,/^A,,/G,,/F,,/E,,/D,,/ | %504
 C,,/E,,/G,,/C,/E,/G,/ | C2 z |] %506
V:2
 z6 | z6 | z6 | z6 | z6 | z6 | z6 | z6 | z6 | z6 | z6 | z6 | z6 | z6 | z6 | z6 | z6 | z6 | z6 | %19
 z6 | z6 | z6 | z6 | z6 | z6 | z6 | z6 | z6 | z6 | z6 | z6 | z6 | z6 | z6 | z6 | z6 | z6 | z6 | %38
 z6 | z6 | z6 | z6 | z6 | z6 | z6 | z6 | z6 | !fermata![F,,D,]2 z4 | z6 | z6 | z6 | z6 | z6 | %53
 [^B,,,A,,]2 z4 | z6 | z6 | z6 | z6 | [G,,F,^B,]6 | [G,,E,C]6 | [G,,D,C]6 | [G,,E,^B,]6 | %62
 !fermata![C,,G,,E,]6 |[M:4/4] z8 | G,, z z2 z4 | z4 G,,3/2 z/ z2 | G,, z z2 z4 | z4 z2 E,>E, | %68
 z4 C,3/2 z/ z2 | z8 | D/ z/ z C,/ z/ z z4 | z8 | %72
 z2 D,2 =D,-D,/4^D,/4^E,/4=G,/4 ^G,/4^A,/4B,/4C/4B,/4A,/4B,/4G,/4 | z4 G, z z2 | ^A, z z2 D, z z2 | %75
 z8 | G,, z z2 z4 | z4 G,,3/2 z/ z2 | G,, z z2 z4 | z4 z2 E,>E, | z4 C,3/2 z/ z2 | z8 | %82
 D/ z/ z C,/ z/ z z4 | z8 | z2 D,2 =D,-D,/4^D,/4^E,/4=G,/4 ^G,/4^A,/4B,/4C/4B,/4A,/4B,/4G,/4 | %85
 z4 G, z z2 | ^A, z z2 D, z z2 | z8 | ^B,3/2 z/ z2 z4 | z8 | z8 | z8 | z4 B,, z z2 | %93
 z4 F,,3/2 z/ z2 | F,,3/2 z/ z2 z4 | z8 | z8 | z8 | z8 | z8 | ^B,3/2 z/ z2 z4 | z8 | z8 | z8 | %104
 z4 B,, z z2 | z4 F,,3/2 z/ z2 | F,,3/2 z/ z2 z4 | z8 | z8 | z8 | z8 | z8 |[M:3/4] z4 z z/ z/ | %113
 z6 | x2 ^B,,2- B,,/C,/D,/E,/ F,/E,/F,/D,/ | z6 | z6 | z6 | x2 G,,2 z4 | z6 | z6 | z6 | z6 | z6 | %124
 z6 | z6 | z6 | z6 | z6 | z6 | x2 ^B,,2- B,,/C,/D,/E,/ F,/E,/F,/D,/ | z6 | z6 | z6 | x2 G,,2 z4 | %135
 z6 | z6 | z6 | z6 | z6 | z6 | z6 | z6 | z6 | z6 | z6 | E,2 z4 | z6 | z6 | z6 | A,,2 z4 | z6 | z6 | %153
 z6 | z6 | z6 | z6 | z6 | z6 | z6 | z6 | z6 | E,2 z4 | z6 | z6 | z6 | A,,2 z4 | z6 | z6 | z6 | z6 | %171
 z6 | z6 | z6 | z6 | z6 | z6 | z6 |[M:3/4] C,2 G,,4 | [C,,G,,]3 z z2 | z2 z4 | z2 z4 | %182
 [E,,G,,]2 G,,4 | [C,,G,,]3 z z2 | z2 z4 | [B,,,F,,]3 z z2 | G,,2 [A,,C,]3 z | A,,2 [F,,E,]4 | %188
 z2 z4 | z2 z4 | C,2 G,,4 | [C,,G,,]3 z z2 | z2 z4 | z2 z4 | [E,,G,,]2 G,,4 | [C,,G,,]3 z z2 | %196
 z2 z4 | [B,,,F,,]3 z z2 | G,,2 [A,,C,]3 z | A,,2 [F,,E,]4 | z2 z4 | z2 z4 | E,=D, D,3 z | %203
 C,3/2 z/ z4 | z2 z4 | [F,,C,]3 z z2 | z2 z4 | z2 z4 | z2 z4 | z2 z4 | A,,2 F,,4 | %211
 F,,2 [^B,,,A,,]3 z | [E,,G,,C,] z z F,, G,, z | z6 | E,2 ^E,3 z | [F,,C,]2 F,3 z | z6 | z6 | %218
 E,=D, D,3 z | C,3/2 z/ z4 | z2 z4 | [F,,C,]3 z z2 | z2 z4 | z2 z4 | z2 z4 | z2 z4 | A,,2 F,,4 | %227
 F,,2 [^B,,,A,,]3 z | [E,,G,,C,] z z F,, G,, z | z6 | E,2 ^E,3 z | [F,,C,]2 F,3 z | z6 | z6 | %234
[M:3/4] x2 C,4 z2 | x2 B,, z z4 | A,,2 z4 | G,, z z4 | x2 C,4 z2 | D, z z4 | x2 E,2 A,,2 F,,2 | %241
 x2 G,,6 | x2 C,4 z2 | x2 B,, z z4 | A,,2 z4 | G,, z z4 | x2 C,4 z2 | D, z z4 | x2 E,2 A,,2 F,,2 | %249
 x2 G,,6 | G,4 z2 | F, z z4 | E,4 D,2 | C, z z4 | F,2 E,2 D,2 | x2 E, z z2 A,,2 | x2 G,,2 z4 | %257
 z2 z4 | ^E,4 z2 | =D,2 z2 C,2 | x2 A,,2 B,,2 C,2 | x2 F,, z z4 | F,2 z2 E,2 | ^B,, z z2 C,2 | %264
 z2 G,,3 z | x2 C,,6 | G,4 z2 | F, z z4 | E,4 D,2 | C, z z4 | F,2 E,2 D,2 | x2 E, z z2 A,,2 | %272
 x2 G,,2 z4 | z2 z4 | ^E,4 z2 | =D,2 z2 C,2 | x2 A,,2 B,,2 C,2 | x2 F,, z z4 | F,2 z2 E,2 | %279
 ^B,, z z2 C,2 | z2 G,,3 z |[K:Db] z2 z4 | z2 z4 | z2 z4 | z2 z4 | z2 z4 | z2 z4 | z2 z4 | A,,6 | %289
 z2 z4 | z2 z4 | z2 z4 | z2 z4 | z2 z4 | z2 z4 | z2 z4 | A,,6 | z2 z4 | z2 z4 | z2 z4 | z2 z4 | %301
 z2 z4 | z2 z4 | z2 z4 | z2 z4 | z2 z4 | z2 z4 | z2 z4 | z2 z4 | z2 z4 | z2 z4 | z2 z4 | z2 z4 | %313
 z2 z4 | z2 z4 | z2 z4 | z2 z4 | z2 z4 | z2 z4 | z2 z4 | z2 z4 | z2 z4 | z2 z4 | z2 z4 | z2 z4 | %325
 z2 z4 | z2 z4 | z2 z4 | z2 z4 |[K:E] x2 C,4 z2 | x2 B,, z z4 | A,,2 z4 | G,, z z4 | x2 C,4 z2 | %334
 D, z z4 | x2 E,2 A,,2 F,,2 | x2 G,,6 | G,4 z2 | F, z z4 | E,4 D,2 | C, z z4 | F,2 E,2 D,2 | %342
 x2 E, z z2 A,,2 | x2 G,,2 z4 | z2 z4 | ^E,4 z2 | =D,2 z2 C,2 | x2 A,,2 B,,2 C,2 | x2 F,, z z4 | %349
 F,2 z2 E,2 | ^B,, z z2 C,2 | z2 G,,3 z | x2 !fermata!C,,6 |[M:3/8] z2 z | z3 | z3 | z3 | z3 | z3 | %359
 z3 | z3 | z3 | z3 | z3 | z3 | z3 | z3 | z3 | G,,3 | z3 | C,3 | C,F,,C, | D,3 | E,E,,E, | C,C,C, | %375
 C,C,C, | C,C,C, | C,2 z | x2 B,, z2 | C, z2 | D, z2 | E, z2 | ^^F, z2 | z3 | z3 | z3 | z3 | z3 | %388
 z3 | z3 | z3 | z3 | z3 | z3 | z3 | z3 | z3 | z3 | z3 | z3 | G,,3 | z3 | C,3 | C,F,,C, | D,3 | %405
 E,E,,E, | C,C,C, | C,C,C, | C,C,C, | C,2 z | x2 B,, z2 | C, z2 | D, z2 | E, z2 | ^^F, z2 | z3 | %416
 z3 | z2 z | z3 | z3 | z3 | z3 | z3 | z3 | z3 | z3 | z3 | z3 | z3 | z3 | z3 | z3 | z3 | z3 | %434
 D,/E,/F,/D,/E,/C,/ | z3 | z3 | z3 | C,/D,/E,/C,/D,/B,,/ | z3 | z3 | z3 | z3 | z3 | z3 | z3 | %446
 x2 E,, z z | F,, z2 | G,, z2 | A,, z2 | z3 | z3 | z3 | z3 | F,,F,,F,, | F,,F,,F,, | F,,F,,F,, | %457
 x2 F,,2 z | z3 | z3 | z3 | z3 | z3 | z3 | z3 | z3 | z3 | z3 | z3 | z3 | z3 | z3 | z3 | z3 | z3 | %475
 z3 | z3 | z3 | D,/E,/F,/D,/E,/C,/ | z3 | z3 | z3 | C,/D,/E,/C,/D,/B,,/ | z3 | z3 | z3 | z3 | z3 | %488
 z3 | z3 | x2 E,, z z | F,, z2 | G,, z2 | A,, z2 | z3 | z3 | z3 | z3 | F,,F,,F,, | F,,F,,F,, | %500
 F,,F,,F,, | x2 F,,2 z | z3 | z3 | z3 | z3 |] %506
V:3
 x6 | x6 | x6 | x6 | x6 | x6 | x6 | x6 | x6 | x6 | x6 | x6 | x6 | x6 | x6 | x6 | x6 | x6 | x6 | %19
 x6 | x6 | x6 | x6 | x6 | x6 | x6 | x6 | x6 | x6 | x6 | x6 | x6 | x6 | x6 | x6 | x6 | x6 | x6 | %38
 x6 | x6 | x6 | x6 | x6 | x6 | x6 | x6 | x6 | x6 | x6 | x6 | x6 | x6 | x6 | x6 | x6 | x6 | x6 | %57
 x6 | x6 | x6 | x6 | x6 | x6 |[M:4/4] x8 | E, z z2 z4 | x8 | ^E, z z2 z4 | x8 | x8 | x8 | x8 | x8 | %72
 x8 | x8 | =G,, z z2 ^G,, z z2 | x8 | E, z z2 z4 | x8 | ^E, z z2 z4 | x8 | x8 | x8 | x8 | x8 | x8 | %85
 x8 | =G,, z z2 ^G,, z z2 | x8 | G,,3/2 z/ z2 z4 | x8 | x8 | x8 | x8 | x8 | x8 | x8 | x8 | x8 | %98
 x8 | x8 | G,,3/2 z/ z2 z4 | x8 | x8 | x8 | x8 | x8 | x8 | x8 | x8 | x8 | x8 | x8 |[M:3/4] x6 | %113
 x6 | F,2 z4 x2 | x6 | x6 | x6 | E,2 z4 x2 | x6 | x6 | x6 | x6 | x6 | x6 | x6 | x6 | x6 | x6 | x6 | %130
 F,2 z4 x2 | x6 | x6 | x6 | E,2 z4 x2 | x6 | x6 | x6 | x6 | x6 | x6 | x6 | x6 | x6 | x6 | x6 | x6 | %147
 x6 | x6 | x6 | x6 | x6 | x6 | x6 | x6 | x6 | x6 | x6 | x6 | x6 | x6 | x6 | x6 | x6 | x6 | x6 | %166
 x6 | x6 | x6 | x6 | x6 | x6 | x6 | x6 | x6 | x6 | x6 | x6 |[M:3/4] x6 | x6 | x6 | x6 | x6 | x6 | %184
 x6 | x6 | x6 | x6 | x6 | x6 | x6 | x6 | x6 | x6 | x6 | x6 | x6 | x6 | x6 | x6 | x6 | x6 | x6 | %203
 x6 | x6 | x6 | x6 | x6 | x6 | x6 | x6 | x6 | x6 | x6 | x6 | x6 | x6 | x6 | x6 | x6 | x6 | x6 | %222
 x6 | x6 | x6 | x6 | x6 | x6 | x6 | x6 | x6 | x6 | x6 | x6 |[M:3/4] E,4 z2 x2 | D, z z4 x2 | x6 | %237
 x6 | E,4 z2 x2 | x6 | z2 E,2 F,2 x2 | D,6 x2 | E,4 z2 x2 | D, z z4 x2 | x6 | x6 | E,4 z2 x2 | x6 | %248
 z2 E,2 F,2 x2 | D,6 x2 | x6 | x6 | x6 | x6 | x6 | z4 D,2 x2 | E,2 z4 x2 | x6 | x6 | x6 | %260
 F,2 F,2 z2 x2 | C, z z4 x2 | x6 | x6 | x6 | G,,6 x2 | x6 | x6 | x6 | x6 | x6 | z4 D,2 x2 | %272
 E,2 z4 x2 | x6 | x6 | x6 | F,2 F,2 z2 x2 | C, z z4 x2 | x6 | x6 | x6 |[K:Db] x6 | x6 | x6 | x6 | %285
 x6 | x6 | x6 | x6 | x6 | x6 | x6 | x6 | x6 | x6 | x6 | x6 | x6 | x6 | x6 | x6 | x6 | x6 | x6 | %304
 x6 | x6 | x6 | x6 | x6 | x6 | x6 | x6 | x6 | x6 | x6 | x6 | x6 | x6 | x6 | x6 | x6 | x6 | x6 | %323
 x6 | x6 | x6 | x6 | x6 | x6 |[K:E] E,4 z2 x2 | D, z z4 x2 | x6 | x6 | E,4 z2 x2 | x6 | %335
 z2 E,2 F,2 x2 | D,6 x2 | x6 | x6 | x6 | x6 | x6 | z4 D,2 x2 | E,2 z4 x2 | x6 | x6 | x6 | %347
 F,2 F,2 z2 x2 | C, z z4 x2 | x6 | x6 | x6 | G,,6 x2 |[M:3/8] x3 | x3 | x3 | x3 | x3 | x3 | x3 | %360
 x3 | x3 | x3 | x3 | x3 | x3 | x3 | x3 | x3 | x3 | x3 | x3 | x3 | x3 | x3 | x3 | x3 | x3 | %378
 D, z2 x2 | x3 | x3 | x3 | x3 | x3 | x3 | x3 | x3 | x3 | x3 | x3 | x3 | x3 | x3 | x3 | x3 | x3 | %396
 x3 | x3 | x3 | x3 | x3 | x3 | x3 | x3 | x3 | x3 | x3 | x3 | x3 | x3 | D, z2 x2 | x3 | x3 | x3 | %414
 x3 | x3 | x3 | x3 | x3 | x3 | x3 | x3 | x3 | x3 | x3 | x3 | x3 | x3 | x3 | x3 | x3 | x3 | x3 | %433
 x3 | x3 | x3 | x3 | x3 | x3 | x3 | x3 | x3 | x3 | x3 | x3 | x3 | G,, z2 x2 | x3 | x3 | x3 | x3 | %451
 x3 | x3 | x3 | x3 | x3 | x3 | D, z2 x2 | x3 | x3 | x3 | x3 | x3 | x3 | x3 | x3 | x3 | x3 | x3 | %469
 x3 | x3 | x3 | x3 | x3 | x3 | x3 | x3 | x3 | x3 | x3 | x3 | x3 | x3 | x3 | x3 | x3 | x3 | x3 | %488
 x3 | x3 | G,, z2 x2 | x3 | x3 | x3 | x3 | x3 | x3 | x3 | x3 | x3 | x3 | D, z2 x2 | x3 | x3 | x3 | %505
 x3 |] %506
V:4
 x6 | x6 | x6 | x6 | x6 | x6 | x6 | x6 | x6 | x6 | x6 | x6 | x6 | x6 | x6 | x6 | x6 | x6 | x6 | %19
 x6 | x6 | x6 | x6 | x6 | x6 | x6 | x6 | x6 | x6 | x6 | x6 | x6 | x6 | x6 | x6 | x6 | x6 | x6 | %38
 x6 | x6 | x6 | x6 | x6 | x6 | x6 | x6 | x6 | x6 | x6 | x6 | x6 | x6 | x6 | x6 | x6 | x6 | x6 | %57
 x6 | x6 | x6 | x6 | x6 | x6 |[M:4/4] x8 | C,, z z2 z4 | z4 C,,3/2 z/ z2 | C,, z z2 z4 | x8 | x8 | %69
 x8 | x8 | x8 | x8 | z4 B,, z z2 | x8 | x8 | C,, z z2 z4 | z4 C,,3/2 z/ z2 | C,, z z2 z4 | x8 | %80
 x8 | x8 | x8 | x8 | x8 | z4 B,, z z2 | x8 | x8 | x8 | x8 | x8 | x8 | x8 | x8 | x8 | x8 | x8 | x8 | %98
 x8 | x8 | x8 | x8 | x8 | x8 | x8 | x8 | x8 | x8 | x8 | x8 | x8 | x8 |[M:3/4] x6 | x6 | x8 | x6 | %116
 x6 | x6 | x8 | x6 | x6 | x6 | x6 | x6 | x6 | x6 | x6 | x6 | x6 | x6 | x8 | x6 | x6 | x6 | x8 | %135
 x6 | x6 | x6 | x6 | x6 | x6 | x6 | x6 | x6 | x6 | x6 | x6 | x6 | x6 | x6 | x6 | x6 | x6 | x6 | %154
 x6 | x6 | x6 | x6 | x6 | x6 | x6 | x6 | x6 | x6 | x6 | x6 | x6 | x6 | x6 | x6 | x6 | x6 | x6 | %173
 x6 | x6 | x6 | x6 | x6 |[M:3/4] x6 | x6 | x6 | x6 | x6 | x6 | x6 | x6 | x6 | x6 | x6 | x6 | x6 | %191
 x6 | x6 | x6 | x6 | x6 | x6 | x6 | x6 | x6 | x6 | x6 | x6 | x6 | x6 | x6 | x6 | x6 | x6 | x6 | %210
 x6 | x6 | x6 | x6 | x6 | x6 | x6 | x6 | x6 | x6 | x6 | x6 | x6 | x6 | x6 | x6 | x6 | x6 | x6 | %229
 x6 | x6 | x6 | x6 | x6 |[M:3/4] x8 | x8 | x6 | x6 | x8 | x6 | x8 | x8 | x8 | x8 | x6 | x6 | x8 | %247
 x6 | x8 | x8 | x6 | x6 | x6 | x6 | x6 | x8 | x8 | x6 | x6 | x6 | x8 | x8 | x6 | x6 | x6 | x8 | %266
 x6 | x6 | x6 | x6 | x6 | x8 | x8 | x6 | x6 | x6 | x8 | x8 | x6 | x6 | x6 |[K:Db] x6 | x6 | x6 | %284
 x6 | x6 | x6 | x6 | x6 | x6 | x6 | x6 | x6 | x6 | x6 | x6 | x6 | x6 | x6 | x6 | x6 | x6 | x6 | %303
 x6 | x6 | x6 | x6 | x6 | x6 | x6 | x6 | x6 | x6 | x6 | x6 | x6 | x6 | x6 | x6 | x6 | x6 | x6 | %322
 x6 | x6 | x6 | x6 | x6 | x6 | x6 |[K:E] x8 | x8 | x6 | x6 | x8 | x6 | x8 | x8 | x6 | x6 | x6 | %340
 x6 | x6 | x8 | x8 | x6 | x6 | x6 | x8 | x8 | x6 | x6 | x6 | x8 |[M:3/8] x3 | x3 | x3 | x3 | x3 | %358
 x3 | x3 | x3 | x3 | x3 | x3 | x3 | x3 | x3 | x3 | x3 | x3 | x3 | x3 | x3 | x3 | x3 | x3 | x3 | %377
 x3 | x5 | x3 | x3 | x3 | x3 | x3 | x3 | x3 | x3 | x3 | x3 | x3 | x3 | x3 | x3 | x3 | x3 | x3 | %396
 x3 | x3 | x3 | x3 | x3 | x3 | x3 | x3 | x3 | x3 | x3 | x3 | x3 | x3 | x5 | x3 | x3 | x3 | x3 | %415
 x3 | x3 | x3 | x3 | x3 | x3 | x3 | x3 | x3 | x3 | x3 | x3 | x3 | x3 | x3 | x3 | x3 | x3 | x3 | %434
 x3 | x3 | x3 | x3 | x3 | x3 | x3 | x3 | x3 | x3 | x3 | x3 | x5 | x3 | x3 | x3 | x3 | x3 | x3 | %453
 x3 | x3 | x3 | x3 | x5 | x3 | x3 | x3 | x3 | x3 | x3 | x3 | x3 | x3 | x3 | x3 | x3 | x3 | x3 | %472
 x3 | x3 | x3 | x3 | x3 | x3 | x3 | x3 | x3 | x3 | x3 | x3 | x3 | x3 | x3 | x3 | x3 | x3 | x5 | %491
 x3 | x3 | x3 | x3 | x3 | x3 | x3 | x3 | x3 | x3 | x5 | x3 | x3 | x3 | x3 |] %506

